X:22
T: Házunk előtt kedves édesanyám
O: Hódmezővásárhely
Q: "Tempo guisto" 1/4=106
M:4/4
L:1/4
K:Bb
cc B<G | c/c/F/G/ F<E | G/G/F/E/ | D<C C z | 
c<c B G | c/c/F/G/ F<E | G/G/F/E/ | D<C C z | 
cedc | B<B G<E | c/e/d/c/ G z | 
cc B G | c/c/F/G/ F<E | G/G/F/E/ | D<C C z | 

